assets/img/braze_icons/file-search-02.svg

<svg fill="none" height="24" viewBox="0 0 24 24" width="24" xmlns="http://www.w3.org/2000/svg"><g clip-rule="evenodd" fill="#801ed7" fill-rule="evenodd"><path d="m15.2413 1h-6.4826c-.80495-.000012-1.46934-.000021-2.01052.0442-.5621.04592-1.0788.14448-1.56414.39178-.75265.38349-1.36457.99541-1.74806 1.74806-.2473.48534-.34586 1.00204-.39178 1.56414-.04422.54118-.04421 1.20555-.0442 2.01051v10.48261c-.00001.805-.00002 1.4693.0442 2.0105.04592.5621.14448 1.0788.39178 1.5642.38349.7526.99541 1.3645 1.74806 1.748.48534.2473 1.00204.3459 1.56414.3918.54119.0442 1.20554.0442 2.0105.0442h2.87462c.7087 0 1.063 0 1.195-.0968.1343-.0984.1864-.1902.2021-.356.0155-.1629-.195-.5155-.6159-1.2208-.5808-.9731-.9145-2.1108-.9145-3.3264 0-3.5899 2.9101-6.5 6.5-6.5.6159 0 1.2118.0857 1.7764.2457.4827.1368.724.2053.8608.1663.1333-.0381.215-.0998.288-.2178.0748-.1209.0748-.3409.0748-.7811v-4.15442c0-.80496 0-1.46931-.0442-2.0105-.0459-.5621-.1445-1.0788-.3918-1.56414-.3835-.75265-.9954-1.36457-1.748-1.74806-.4854-.2473-1.0021-.34586-1.5642-.39178-.5412-.044221-1.2055-.044212-2.0105-.0442zm-8.2413 4c-.55228 0-1 .44772-1 1 0 .55229.44772 1 1 1h9c.5523 0 1-.44771 1-1 0-.55228-.4477-1-1-1zm-1 5c0-.55229.44772-1 1-1h6c.5523 0 1 .44771 1 1 0 .5523-.4477 1-1 1h-6c-.55228 0-1-.4477-1-1zm0 4c0-.5523.44772-1 1-1h2c.55229 0 1 .4477 1 1s-.44771 1-1 1h-2c-.55228 0-1-.4477-1-1z"/><path d="m13.5 18c0-2.4853 2.0147-4.5 4.5-4.5s4.5 2.0147 4.5 4.5c0 .8805-.2529 1.702-.69 2.3957l.8971.8972c.3905.3905.3905 1.0237 0 1.4142s-1.0237.3905-1.4142 0l-.8972-.8971c-.6937.4371-1.5152.69-2.3957.69-2.4853 0-4.5-2.0147-4.5-4.5zm4.5-2.5c-1.3807 0-2.5 1.1193-2.5 2.5s1.1193 2.5 2.5 2.5 2.5-1.1193 2.5-2.5-1.1193-2.5-2.5-2.5z"/></g></svg>

<svg width="24" height="24" viewBox="0 0 24 24" fill="none" xmlns="http://www.w3.org/2000/svg">
<path fill-rule="evenodd" clip-rule="evenodd" d="M15.2413 1H8.7587C7.95375 0.999988 7.28936 0.999979 6.74818 1.0442C6.18608 1.09012 5.66938 1.18868 5.18404 1.43598C4.43139 1.81947 3.81947 2.43139 3.43598 3.18404C3.18868 3.66938 3.09012 4.18608 3.0442 4.74818C2.99998 5.28936 2.99999 5.95373 3 6.75869V17.2413C2.99999 18.0463 2.99998 18.7106 3.0442 19.2518C3.09012 19.8139 3.18868 20.3306 3.43598 20.816C3.81947 21.5686 4.43139 22.1805 5.18404 22.564C5.66938 22.8113 6.18608 22.9099 6.74818 22.9558C7.28937 23 7.95372 23 8.75868 23H11.6333C12.342 23 12.6963 23 12.8283 22.9032C12.9626 22.8048 13.0147 22.713 13.0304 22.5472C13.0459 22.3843 12.8354 22.0317 12.4145 21.3264C11.8337 20.3533 11.5 19.2156 11.5 18C11.5 14.4101 14.4101 11.5 18 11.5C18.6159 11.5 19.2118 11.5857 19.7764 11.7457C20.2591 11.8825 20.5004 11.951 20.6372 11.912C20.7705 11.8739 20.8522 11.8122 20.9252 11.6942C21 11.5733 21 11.3533 21 10.9131V6.75868C21 5.95372 21 5.28937 20.9558 4.74818C20.9099 4.18608 20.8113 3.66938 20.564 3.18404C20.1805 2.43139 19.5686 1.81947 18.816 1.43598C18.3306 1.18868 17.8139 1.09012 17.2518 1.0442C16.7106 0.999979 16.0463 0.999988 15.2413 1ZM7 5C6.44772 5 6 5.44772 6 6C6 6.55229 6.44772 7 7 7H16C16.5523 7 17 6.55229 17 6C17 5.44772 16.5523 5 16 5H7ZM6 10C6 9.44771 6.44772 9 7 9H13C13.5523 9 14 9.44771 14 10C14 10.5523 13.5523 11 13 11H7C6.44772 11 6 10.5523 6 10ZM6 14C6 13.4477 6.44772 13 7 13H9C9.55229 13 10 13.4477 10 14C10 14.5523 9.55229 15 9 15H7C6.44772 15 6 14.5523 6 14Z" fill="#801ED7"/>
<path fill-rule="evenodd" clip-rule="evenodd" d="M13.5 18C13.5 15.5147 15.5147 13.5 18 13.5C20.4853 13.5 22.5 15.5147 22.5 18C22.5 18.8805 22.2471 19.702 21.81 20.3957L22.7071 21.2929C23.0976 21.6834 23.0976 22.3166 22.7071 22.7071C22.3166 23.0976 21.6834 23.0976 21.2929 22.7071L20.3957 21.81C19.702 22.2471 18.8805 22.5 18 22.5C15.5147 22.5 13.5 20.4853 13.5 18ZM18 15.5C16.6193 15.5 15.5 16.6193 15.5 18C15.5 19.3807 16.6193 20.5 18 20.5C19.3807 20.5 20.5 19.3807 20.5 18C20.5 16.6193 19.3807 15.5 18 15.5Z" fill="#801ED7"/>
</svg>
